X:191
T:The Mountain Top
R:reel
M:4/4
L:1/8
K:Gmaj
|: B2AG EGDE | G2 (3B^cd {f}edgd | BG{B}AG EGDG |1 (3BcB Ad BGGA :|2 (3BcB Ac BG~G2 ||
Bd (3B^cd edBA | Bdef gfed | BddB d2ge | dBAd BGGA |
Bd (3B^cd edBA | (3B^cd ef ~g2ga | bgaf gfed | (3efg fa gedc ||

